public/icons/github.svg

<svg fill="none" height="32" viewBox="0 0 32 32" width="32" xmlns="http://www.w3.org/2000/svg"><path d="m16 2.99561c-3.166.00013-6.22872 1.12681-8.64005 3.17846-2.41133 2.05164-4.01395 4.89433-4.52111 8.01953-.50716 3.1251.11425 6.3288 1.75302 9.0377 1.63878 2.7089 4.18798 4.7463 7.19154 5.7476.6666.1167.9166-.2833.9166-.6333 0-.3167-.0167-1.3667-.0167-2.4833-3.34997.6166-4.21664-.8167-4.4833-1.5667-.2959-.7294-.76497-1.3758-1.36667-1.8833-.46667-.25-1.13333-.8667-.01668-.8833.42638.0462.83533.1946 1.19219.4325s.65111.5583.85782.9341c.18236.3276.42758.616.72159.8487.29401.2326.63105.405.99175.5072.3608.1022.7381.1322 1.1105.0882.3724-.0439.7324-.1608 1.0595-.3441.0577-.6778.3598-1.3116.85-1.7833-2.9667-.3333-6.06667-1.4834-6.06667-6.5833-.01874-1.3252.47025-2.6073 1.36667-3.5834-.40763-1.1517-.35993-2.41558.13333-3.53329 0 0 1.11667-.35001 3.66667 1.36667 2.1817-.60004 4.4849-.60004 6.6667 0 2.5499-1.73333 3.6666-1.36667 3.6666-1.36667.4934 1.1177.5411 2.38159.1334 3.53329.8991.9745 1.3885 2.2577 1.3666 3.5834 0 5.1166-3.1167 6.25-6.0833 6.5833.3182.3225.5633.7097.7186 1.1354.1553.4256.2171.8796.1814 1.3313 0 1.7833-.0167 3.2166-.0167 3.6666 0 .3501.25.7667.9167.6334 2.9982-1.0095 5.5401-3.0517 7.1719-5.762s2.2473-5.9123 1.7366-9.0344-2.1143-5.96117-4.5245-8.01031c-2.4103-2.04915-5.4704-3.17504-8.634-3.17668z" fill="#0c0b0c"/></svg>

<svg width="32" height="32" viewBox="0 0 32 32" fill="none" xmlns="http://www.w3.org/2000/svg">
<path d="M16 2.99561C12.834 2.99574 9.77128 4.12242 7.35995 6.17407C4.94862 8.22571 3.346 11.0684 2.83884 14.1936C2.33168 17.3187 2.95309 20.5224 4.59186 23.2313C6.23064 25.9402 8.77984 27.9776 11.7834 28.9789C12.45 29.0956 12.7 28.6956 12.7 28.3456C12.7 28.0289 12.6833 26.9789 12.6833 25.8623C9.33333 26.4789 8.46666 25.0456 8.2 24.2956C7.9041 23.5662 7.43503 22.9198 6.83333 22.4123C6.36666 22.1623 5.7 21.5456 6.81665 21.529C7.24303 21.5752 7.65198 21.7236 8.00884 21.9615C8.3657 22.1994 8.65995 22.5198 8.86666 22.8956C9.04902 23.2232 9.29424 23.5116 9.58825 23.7443C9.88226 23.9769 10.2193 24.1493 10.58 24.2515C10.9408 24.3537 11.3181 24.3837 11.6905 24.3397C12.0629 24.2958 12.4229 24.1789 12.75 23.9956C12.8077 23.3178 13.1098 22.684 13.6 22.2123C10.6333 21.879 7.53333 20.7289 7.53333 15.629C7.51459 14.3038 8.00358 13.0217 8.9 12.0456C8.49237 10.8939 8.54007 9.63002 9.03333 8.51231C9.03333 8.51231 10.15 8.1623 12.7 9.87898C14.8817 9.27894 17.1849 9.27894 19.3667 9.87898C21.9166 8.14565 23.0333 8.51231 23.0333 8.51231C23.5267 9.63001 23.5744 10.8939 23.1667 12.0456C24.0658 13.0201 24.5552 14.3033 24.5333 15.629C24.5333 20.7456 21.4166 21.879 18.45 22.2123C18.7682 22.5348 19.0133 22.922 19.1686 23.3477C19.3239 23.7733 19.3857 24.2273 19.35 24.679C19.35 26.4623 19.3333 27.8956 19.3333 28.3456C19.3333 28.6957 19.5833 29.1123 20.25 28.979C23.2482 27.9695 25.7901 25.9273 27.4219 23.217C29.0537 20.5067 29.6692 17.3047 29.1585 14.1826C28.6478 11.0605 27.0442 8.22143 24.634 6.17229C22.2237 4.12314 19.1636 2.99725 16 2.99561V2.99561Z" fill="#0C0B0C"/>
</svg>
